X: 1
T: Bonny Kate
R: polka 32
S: Ashover MS
B: English Choice, Nick Barber, pub mally.com
F: http://lesters-tune-a-day.blogspot.co.uk/2012/11/tune-75-bonny-kate.html
M: C|
L: 1/8
K: G
d2e2 !segno!f2 |\
"G"g3f g3f | "G"g2d2 d2B2 | "C"cde2 "D"d3{ed}c | "G"B2G2 G2-GA |\
"Em"B2G2 G2AB | "Am"c2A2 A2c2 | "G"Bcd2 "D"{B}c2B2 |1 "D"A2 :|2 A6 ||
|: Ac |\
"G"B2G2 G2AB | "Am"c2A2 "Bm"d2B2 | "C"e2c2 c2e2 | "D"f4 d2ef |\
"G"g3f g2fe | "D"d2ef "G"g2B2 | "C"cde2 "D"d3{ed}c |1 "G"B2G2 G2 :|2 "G"B2A2 !segno!G2 |]
